static/case.svg

<svg width="88" height="90" viewBox="0 0 88 90" fill="none" xmlns="http://www.w3.org/2000/svg">
<path d="M86.5499 59.7434L81.8456 58.567C81.4523 57.2682 80.93 56.0112 80.2868 54.8165L82.7833 50.6565C83.1378 50.0661 83.0448 49.3101 82.5584 48.823L77.8761 44.1349C77.389 43.6477 76.633 43.5555 76.0426 43.91L71.8826 46.4064C71.3428 46.1171 70.7875 45.8497 70.222 45.6065C69.5364 45.3157 68.8354 45.0622 68.1219 44.8476L66.9455 40.1426C66.7792 39.4746 66.1792 39.0058 65.4907 39.0058H58.8731C58.1845 39.0058 57.5846 39.4746 57.4176 40.1426L56.2419 44.8476C54.9424 45.241 53.6861 45.7633 52.4914 46.4064L48.3314 43.91C47.741 43.5555 46.985 43.6477 46.4979 44.1349L41.8098 48.8171C41.3227 49.3043 41.2304 50.0602 41.5849 50.6506L44.0813 54.8106C43.4375 56.0054 42.9159 57.2616 42.5225 58.5611L37.8176 59.7368C37.1495 59.9038 36.6807 60.5038 36.6807 61.1923V67.8143C36.6807 68.5029 37.1495 69.1028 37.8176 69.2691L42.5225 70.4455C42.9159 71.7443 43.4375 73.0006 44.0813 74.196L41.5849 78.356C41.2304 78.9464 41.3227 79.7024 41.8098 80.1895L46.4921 84.8718C46.9792 85.3582 47.7351 85.4512 48.3248 85.0967L52.4848 82.6002C53.6803 83.2434 54.9365 83.7657 56.2353 84.159L57.4117 88.8633C57.5787 89.5313 58.1787 90.0002 58.8672 90.0009H65.4892C66.1778 90.0002 66.7777 89.5313 66.944 88.8633L68.1204 84.159C69.4192 83.7657 70.6755 83.2434 71.8709 82.6002L76.0309 85.0967C76.6213 85.4512 77.3773 85.3582 77.8644 84.8718L82.5459 80.1895C83.0331 79.7024 83.1261 78.9464 82.7715 78.356L80.2751 74.196C80.9183 73.0006 81.4406 71.7443 81.8339 70.4455L86.5382 69.2691C87.2062 69.1028 87.675 68.5029 87.675 67.8143V61.1982C87.6765 60.5133 87.2135 59.9141 86.5499 59.7434ZM84.6871 66.6481L80.2722 67.7528C79.7353 67.8861 79.3162 68.3029 79.18 68.8391C78.7669 70.4646 78.1215 72.0219 77.2623 73.462C76.9795 73.9367 76.9795 74.5279 77.2623 75.0018L79.6056 78.9025L76.5862 81.9344L72.6855 79.591C72.2115 79.3076 71.6204 79.3076 71.1465 79.591C69.7056 80.4496 68.1483 81.0956 66.5228 81.508C65.9866 81.6443 65.5698 82.064 65.4365 82.6002L64.323 87.0122H60.0444L58.9405 82.5973C58.8072 82.0611 58.3896 81.6414 57.8542 81.5051C56.2287 81.092 54.6714 80.4466 53.2305 79.5874C52.7566 79.3046 52.1654 79.3046 51.6915 79.5874L47.7908 81.9307L44.7589 78.9113L47.1022 75.0106C47.3857 74.5367 47.3857 73.9455 47.1022 73.4716C46.2437 72.0307 45.5977 70.4734 45.1852 68.8479C45.049 68.3124 44.6293 67.8949 44.0931 67.7616L39.6811 66.6481V62.3702L44.096 61.2656C44.6322 61.1323 45.0519 60.7155 45.1882 60.1793C45.6006 58.5538 46.2467 56.9965 47.1052 55.5563C47.3887 55.0816 47.3887 54.4905 47.1052 54.0166L44.7618 50.1159L47.782 47.084L51.6827 49.4273C52.1566 49.7108 52.7478 49.7108 53.2217 49.4273C54.6626 48.5688 56.2199 47.9227 57.8454 47.5103C58.3808 47.3741 58.7984 46.9543 58.9317 46.4181L60.0444 42.0062H64.323L65.4277 46.4211C65.561 46.9573 65.9778 47.377 66.5133 47.5133C68.1387 47.9249 69.6961 48.5703 71.1355 49.4295C71.6101 49.713 72.202 49.713 72.6767 49.4295L76.5766 47.0862L79.6085 50.1071L77.2652 54.0078C76.9824 54.4817 76.9824 55.0729 77.2652 55.5468C78.1244 56.9877 78.7698 58.545 79.1829 60.1705C79.3192 60.7059 79.7382 61.1235 80.2751 61.2568L84.6871 62.3702V66.6481Z" fill="#1D4283"/>
<path d="M62.1841 52.5078C55.5555 52.5078 50.1825 57.8808 50.1825 64.5094C50.1825 71.1379 55.5555 76.511 62.1841 76.511C68.8119 76.511 74.1857 71.1379 74.1857 64.5094C74.1784 57.8845 68.809 52.5151 62.1841 52.5078ZM62.1841 73.5106C57.2125 73.5106 53.1829 69.4803 53.1829 64.5094C53.1829 59.5385 57.2125 55.5082 62.1841 55.5082C67.155 55.5082 71.1853 59.5385 71.1853 64.5094C71.1802 69.4788 67.1528 73.5054 62.1841 73.5106Z" fill="#1D4283"/>
<path d="M69.6851 18.0026H72.6855V42.0058H69.6851V18.0026Z" fill="#1D4283"/>
<path d="M6.6767 76.5102V82.511C6.6767 83.3395 7.34842 84.0112 8.1769 84.0112H39.6811V81.0108H9.6771V76.5102H27.6795C27.9117 76.5124 28.141 76.4611 28.3498 76.36L34.3506 73.3596C34.8597 73.1062 35.182 72.5861 35.182 72.0169C35.182 71.4485 34.8597 70.9284 34.3506 70.6742L28.3498 67.6738C28.1425 67.5676 27.9124 67.5112 27.6795 67.509H9.6771V16.5022H66.6847C69.9986 16.5022 72.6855 13.8153 72.6855 10.5014V7.501C72.6855 6.67252 72.0138 6.0008 71.1853 6.0008H66.6847V9.0012H69.6851V10.5014C69.6851 12.1584 68.3417 13.5018 66.6847 13.5018C65.0277 13.5018 63.6843 12.1584 63.6843 10.5014V6.0008C63.6843 4.34384 65.0277 3.0004 66.6847 3.0004H72.6855C74.3425 3.0004 75.6859 4.34384 75.6859 6.0008V40.5054H78.6863V6.0008C78.6863 2.68688 75.9994 0 72.6855 0H6.6767C3.36205 0 0.675903 2.68688 0.675903 6.0008V10.5014C0.675903 13.8153 3.36205 16.5022 6.6767 16.5022V67.509H5.1765C2.69106 67.509 0.675903 69.5242 0.675903 72.0096C0.675903 74.495 2.69106 76.5102 5.1765 76.5102H6.6767ZM3.6763 10.5014V6.0008C3.6763 4.34384 5.01974 3.0004 6.6767 3.0004H61.5175C60.9776 3.90872 60.6898 4.94451 60.6839 6.0008V10.5014C60.6898 11.5577 60.9776 12.5935 61.5175 13.5018H6.6767C5.01974 13.5018 3.6763 12.1584 3.6763 10.5014ZM30.3254 72.0096L27.325 73.5098H26.1793V70.5094H27.325L30.3254 72.0096ZM3.6763 72.0096C3.6763 71.1811 4.34802 70.5094 5.1765 70.5094H23.1789V73.5098H5.1765C4.34802 73.5098 3.6763 72.8381 3.6763 72.0096Z" fill="#1D4283"/>
<path d="M0.675903 22.5034H3.6763V52.5074H0.675903V22.5034Z" fill="#1D4283"/>
<path d="M59.1837 24.0029V21.0025H39.6811C39.2833 21.0025 38.9017 21.1607 38.6204 21.442L35.8793 24.1831C29.3262 19.38 20.2481 20.081 14.5103 25.8335C13.925 26.4188 13.925 27.3688 14.5103 27.9541L25.1186 38.5625C25.3992 38.8445 25.7808 39.0042 26.1793 39.0049H41.1813C42.0098 39.0049 42.6815 38.3332 42.6815 37.5047C42.68 33.2817 41.0538 29.2214 38.1384 26.166L40.3023 24.0029H59.1837ZM39.5969 36.0045H26.8005L17.7509 26.955C22.3629 23.2623 28.8442 23.0103 33.7294 26.3331L29.6192 30.4432L31.7406 32.5646L36.0251 28.2801C38.0205 30.4007 39.2738 33.1111 39.5969 36.0045Z" fill="#1D4283"/>
<path d="M62.1841 21.0032H65.1845V24.0036H62.1841V21.0032Z" fill="#1D4283"/>
<path d="M17.1781 43.5064H20.1785V46.5068H17.1781V43.5064Z" fill="#1D4283"/>
<path d="M23.1789 43.5064H38.1809V46.5068H23.1789V43.5064Z" fill="#1D4283"/>
<path d="M14.1777 49.5072H38.1809V52.5076H14.1777V49.5072Z" fill="#1D4283"/>
<path d="M47.1821 27.004H50.1825V30.0044H47.1821V27.004Z" fill="#1D4283"/>
<path d="M53.1829 27.004H65.1845V30.0044H53.1829V27.004Z" fill="#1D4283"/>
<path d="M47.1821 33.0049H65.1845V36.0053H47.1821V33.0049Z" fill="#1D4283"/>
<path d="M14.1777 55.5081H33.6803V58.5085H14.1777V55.5081Z" fill="#1D4283"/>
</svg>

<svg width="88" height="90" fill="none" xmlns="http://www.w3.org/2000/svg"><path d="m86.55 59.743-4.704-1.176a20.363 20.363 0 0 0-1.56-3.75l2.497-4.16a1.501 1.501 0 0 0-.225-1.834l-4.682-4.688a1.5 1.5 0 0 0-1.833-.225l-4.16 2.496c-.54-.289-1.096-.556-1.661-.8a20.498 20.498 0 0 0-2.1-.758l-1.177-4.705a1.5 1.5 0 0 0-1.454-1.137h-6.618a1.5 1.5 0 0 0-1.455 1.137l-1.176 4.705c-1.3.393-2.556.915-3.75 1.558l-4.16-2.496a1.5 1.5 0 0 0-1.834.225l-4.688 4.682a1.5 1.5 0 0 0-.225 1.834l2.496 4.16a20.31 20.31 0 0 0-1.559 3.75l-4.704 1.176a1.5 1.5 0 0 0-1.137 1.455v6.622c0 .689.469 1.289 1.137 1.455l4.705 1.176a20.348 20.348 0 0 0 1.558 3.751l-2.496 4.16a1.5 1.5 0 0 0 .225 1.834l4.682 4.682a1.5 1.5 0 0 0 1.833.225l4.16-2.497a20.386 20.386 0 0 0 3.75 1.559l1.177 4.704a1.502 1.502 0 0 0 1.455 1.138h6.622a1.5 1.5 0 0 0 1.455-1.138l1.176-4.704a20.383 20.383 0 0 0 3.75-1.559l4.16 2.497c.591.354 1.347.261 1.834-.225l4.682-4.683a1.5 1.5 0 0 0 .225-1.833l-2.496-4.16a20.383 20.383 0 0 0 1.559-3.75l4.704-1.177a1.499 1.499 0 0 0 1.137-1.455v-6.616a1.499 1.499 0 0 0-1.125-1.455zm-1.863 6.905-4.415 1.105c-.537.133-.956.55-1.092 1.086a17.374 17.374 0 0 1-1.918 4.623 1.503 1.503 0 0 0 0 1.54l2.344 3.9-3.02 3.032-3.9-2.343a1.5 1.5 0 0 0-1.54 0 17.385 17.385 0 0 1-4.623 1.917 1.5 1.5 0 0 0-1.087 1.092l-1.113 4.412h-4.279l-1.103-4.415a1.501 1.501 0 0 0-1.087-1.092 17.39 17.39 0 0 1-4.623-1.918 1.502 1.502 0 0 0-1.54 0l-3.9 2.344-3.032-3.02 2.343-3.9a1.499 1.499 0 0 0 0-1.54 17.392 17.392 0 0 1-1.917-4.623 1.5 1.5 0 0 0-1.092-1.086l-4.412-1.114V62.37l4.415-1.104a1.5 1.5 0 0 0 1.092-1.087 17.374 17.374 0 0 1 1.917-4.623 1.5 1.5 0 0 0 0-1.54l-2.343-3.9 3.02-3.032 3.9 2.343a1.499 1.499 0 0 0 1.54 0 17.388 17.388 0 0 1 4.623-1.917 1.501 1.501 0 0 0 1.087-1.092l1.112-4.412h4.279l1.105 4.415a1.5 1.5 0 0 0 1.085 1.092 17.309 17.309 0 0 1 4.622 1.916 1.503 1.503 0 0 0 1.542 0l3.9-2.343 3.032 3.021-2.344 3.9a1.502 1.502 0 0 0 0 1.54 17.39 17.39 0 0 1 1.918 4.623 1.5 1.5 0 0 0 1.092 1.087l4.412 1.113v4.278z" fill="#1D4283"/><path d="M62.184 52.508c-6.628 0-12.002 5.373-12.002 12.001 0 6.629 5.373 12.002 12.002 12.002 6.628 0 12.002-5.373 12.002-12.002-.008-6.624-5.377-11.994-12.002-12.001zm0 21.003a9.001 9.001 0 1 1 9.001-9.002 9.01 9.01 0 0 1-9 9.002zM69.685 18.003h3v24.003h-3V18.003z" fill="#1D4283"/><path d="M6.677 76.51v6.001a1.5 1.5 0 0 0 1.5 1.5H39.68v-3H9.677v-4.5H27.68c.232.001.461-.05.67-.151l6-3a1.5 1.5 0 0 0 0-2.686l-6-3a1.503 1.503 0 0 0-.67-.165H9.677V16.502h57.008c3.314 0 6-2.687 6-6V7.5a1.5 1.5 0 0 0-1.5-1.5h-4.5v3h3v1.5a3 3 0 0 1-6 0v-4.5a3 3 0 0 1 3-3h6a3 3 0 0 1 3 3v34.504h3.001V6.001C78.686 2.687 76 0 72.686 0H6.675a6 6 0 0 0-6 6v4.501a6 6 0 0 0 6 6.001V67.51h-1.5a4.5 4.5 0 0 0 0 9.001h1.5zm-3-66.009v-4.5a3 3 0 0 1 3-3h54.84a5.937 5.937 0 0 0-.833 3v4.5a5.937 5.937 0 0 0 .834 3H6.676a3 3 0 0 1-3-3zM30.324 72.01l-3 1.5h-1.146v-3h1.146l3 1.5zm-26.649 0a1.5 1.5 0 0 1 1.5-1.5H23.18v3H5.177a1.5 1.5 0 0 1-1.5-1.5z" fill="#1D4283"/><path d="M.676 22.503h3v30.004h-3V22.503zM59.184 24.003v-3H39.68a1.5 1.5 0 0 0-1.06.439l-2.742 2.741a16.448 16.448 0 0 0-21.369 1.65 1.5 1.5 0 0 0 0 2.121L25.12 38.562a1.5 1.5 0 0 0 1.06.443h15.002a1.5 1.5 0 0 0 1.5-1.5 16.432 16.432 0 0 0-4.543-11.339l2.164-2.163h18.882zM39.597 36.005H26.8l-9.05-9.05a13.456 13.456 0 0 1 15.98-.622l-4.11 4.11 2.12 2.122 4.285-4.285a13.45 13.45 0 0 1 3.572 7.724zM62.184 21.003h3v3h-3v-3zM17.178 43.506h3v3h-3v-3zM23.179 43.506H38.18v3H23.179v-3zM14.178 49.507H38.18v3H14.178v-3z" fill="#1D4283"/><path d="M47.182 27.004h3v3h-3v-3zM53.183 27.004h12.002v3H53.182v-3zM47.182 33.005h18.002v3H47.183v-3zM14.178 55.508H33.68v3H14.178v-3z" fill="#1D4283"/></svg>
